storage/app/icons/phosphoricons/fill/cpu-fill.svg

<svg xmlns="http://www.w3.org/2000/svg" fill="currentColor" viewBox="0 0 256 256"><path d="M104 104h48v48h-48Zm136 48a8 8 0 0 1-8 8h-16v40a16 16 0 0 1-16 16h-40v16a8 8 0 0 1-16 0v-16h-32v16a8 8 0 0 1-16 0v-16H56a16 16 0 0 1-16-16v-40H24a8 8 0 0 1 0-16h16v-32H24a8 8 0 0 1 0-16h16V56a16 16 0 0 1 16-16h40V24a8 8 0 0 1 16 0v16h32V24a8 8 0 0 1 16 0v16h40a16 16 0 0 1 16 16v40h16a8 8 0 0 1 0 16h-16v32h16a8 8 0 0 1 8 8m-72-56a8 8 0 0 0-8-8H96a8 8 0 0 0-8 8v64a8 8 0 0 0 8 8h64a8 8 0 0 0 8-8Z"/></svg>

<svg xmlns="http://www.w3.org/2000/svg" viewBox="0 0 256 256" fill="currentColor"><path d="M104,104h48v48H104Zm136,48a8,8,0,0,1-8,8H216v40a16,16,0,0,1-16,16H160v16a8,8,0,0,1-16,0V216H112v16a8,8,0,0,1-16,0V216H56a16,16,0,0,1-16-16V160H24a8,8,0,0,1,0-16H40V112H24a8,8,0,0,1,0-16H40V56A16,16,0,0,1,56,40H96V24a8,8,0,0,1,16,0V40h32V24a8,8,0,0,1,16,0V40h40a16,16,0,0,1,16,16V96h16a8,8,0,0,1,0,16H216v32h16A8,8,0,0,1,240,152ZM168,96a8,8,0,0,0-8-8H96a8,8,0,0,0-8,8v64a8,8,0,0,0,8,8h64a8,8,0,0,0,8-8Z"/></svg>
